;Generated by Cura LulzBot Edition GCodeWriter Version: 3.6.20
;FLAVOR:Marlin
;TIME:11168
;Filament used: 6.08337m
;Layer height: 0.25
;Generated with Cura_SteamEngine 3.6.20
M82 ;absolute extrusion mode
;This G-Code has been generated specifically for the LulzBot Mini 2 with SE 0.5mm Tool Head
M73 P0                  ; clear GLCD progress bar
M75 					; Start GLCD Print Timer
G26 					; clear potential 'probe fail' condition
M107 					; disable fans
M420 S0                 ; disable leveling matrix
G90 					; absolute positioning
M82 					; set extruder to absolute mode
G92 E0 					; set extruder position to 0
M140 S60.0 ; start bed heating up
G28 					; home all axes
G0 X0 Y187 Z156 F200 			; move away from endstops
M117 Mini 2 Wiping...			; progress indicator message on LCD
M109 R140 	; soften filament before retraction
G1 E-15 F75 				; retract filament
M109 R140 	; wait for extruder to reach wiping temp
G1 X45 Y176 F11520 			; move above wiper pad
G1 Z0 F1200 				; push nozzle into wiper
G1 X45 Y178 Z-.5 F4000		; wiping
G1 X55 Y176 Z-.5 F4000		; wiping
G1 X45 Y177 Z0 F4000		; wiping
G1 X55 Y176 F4000		; wiping
G1 X45 Y178 F4000		; wiping
G1 X55 Y176 F4000		; wiping
G1 X45 Y178 F4000		; wiping
G1 X55 Y176 F4000		; wiping
G1 X60 Y178 F4000		; wiping
G1 X80 Y176 F4000		; wiping
G1 X60 Y178 F4000		; wiping
G1 X80 Y176 F4000		; wiping
G1 X60 Y178 F4000		; wiping
G1 X90 Y176 F4000		; wiping
G1 X80 Y178 F4000		; wiping
G1 X100 Y176 F4000		; wiping
G1 X80 Y178 F4000		; wiping
G1 X100 Y176 F4000		; wiping
G1 X80 Y178 F4000		; wiping
G1 X100 Y176 F4000		; wiping
G1 X110 Y178 F4000		; wiping
G1 X100 Y176 F4000		; wiping
G1 X110 Y178 F4000		; wiping
G1 X100 Y176 F4000		; wiping
G1 X110 Y178 F4000		; wiping
G1 X115 Y176 Z-0.5 F1000	; wiping
G1 Z10					; raise extruder
G28 X0 Y0				; home X and Y
M109 R140	; wait for extruder to reach probe temp
M204 S300				; set probing acceleration
G29					; start auto-leveling sequence
M420 S1                     ; enable leveling matrix
M425 Z			     		; use measured Z backlash for compensation
M425 Z F0		     		; turn off measured Z backlash compensation. (if activated in the quality settings, this command will automatically be ignored)
M204 S2000				; restore standard acceleration
G1 X5 Y15 Z10 F5000			; move up off last probe point
G4 S1					; pause
M400					; wait for moves to finish
M117 Heating...				; progress indicator message on LCD
M109 R210 ; wait for extruder to reach initial printing temp
M190 R60.0 ; wait for bed to reach printing temp
G1 Z2 E0 F75				; prime tiny bit of filment into the nozzle
M117 Mini 2 Printing...		; progress indicator message on LCD

M221 S100 T0
G92 E0
G1 F600 E-1.75
;LAYER_COUNT:102
;LAYER:0
M107
G0 F2625 X29.238 Y39.53 Z0.425
;TYPE:SKIRT
G1 F600 E0
G1 F900 X29.893 Y39.209 E0.0243
G1 X30.759 Y38.899 E0.05494
G1 X31.25 Y38.766 E0.07188
G1 X31.854 Y38.709 E0.09209
G1 X69.6 Y38.708 E1.34942
G1 X69.662 Y38.709 E1.35149
G1 X77.752 Y38.864 E1.62102
G1 X83.203 Y38.617 E1.80278
G1 X91.566 Y37.68 E2.0831
G1 X91.944 Y37.66 E2.09571
G1 X100.571 Y37.704 E2.38308
G1 X105.687 Y37.522 E2.5536
G1 X105.815 Y37.52 E2.55787
G1 X117.596 Y37.567 E2.9503
G1 X117.701 Y37.569 E2.9538
G1 X121.384 Y37.703 E3.07656
G1 X130.317 Y37.678 E3.37412
G1 X130.938 Y37.736 E3.3949
G1 X131.413 Y37.827 E3.41101
G1 X131.904 Y37.962 E3.42797
G1 X132.278 Y38.124 E3.44155
G1 X133.287 Y38.639 E3.47928
G1 X133.722 Y38.906 E3.49629
G1 X134.09 Y39.218 E3.51236
G1 X134.471 Y39.593 E3.53016
G1 X134.805 Y39.978 E3.54714
G1 X134.985 Y40.249 E3.55798
G1 X135.377 Y40.909 E3.58355
G1 X135.647 Y41.486 E3.60477
G1 X135.788 Y41.885 E3.61886
G1 X135.952 Y42.592 E3.64304
G1 X136.044 Y43.382 E3.66953
G1 X136.066 Y43.758 E3.68208
G1 X136.065 Y84.962 E5.0546
G1 X136.059 Y85.158 E5.06113
G1 X135.719 Y90.792 E5.24914
G1 X135.644 Y96.294 E5.43243
G1 X135.881 Y101.822 E5.61674
G1 X136.058 Y104.412 E5.70322
G1 X136.066 Y104.635 E5.71065
G1 X136.061 Y118.659 E6.1778
G1 X136.021 Y119.167 E6.19477
G1 X135.94 Y119.537 E6.20739
G1 X135.766 Y120.156 E6.2288
G1 X135.501 Y120.812 E6.25237
G1 X135.077 Y121.603 E6.28227
G1 X134.802 Y122.032 E6.29924
G1 X134.481 Y122.396 E6.31541
G1 X134.052 Y122.814 E6.33536
G1 X133.557 Y123.21 E6.35648
G1 X133.087 Y123.516 E6.37516
G1 X132.64 Y123.759 E6.3921
G1 X132.385 Y123.86 E6.40124
G1 X131.692 Y124.102 E6.42569
G1 X131.2 Y124.232 E6.44264
G1 X130.826 Y124.278 E6.45519
G1 X129.783 Y124.344 E6.49001
G1 X129.521 Y124.349 E6.49874
G1 X117.578 Y124.139 E6.89662
G1 X117.532 Y124.138 E6.89816
G1 X111.2 Y123.937 E7.10918
G1 X108.061 Y123.975 E7.21375
G1 X104.489 Y124.139 E7.33286
G1 X104.347 Y124.142 E7.33759
G1 X100.878 Y124.15 E7.45315
G1 X94.112 Y124.348 E7.67862
G1 X93.976 Y124.349 E7.68315
G1 X91.609 Y124.319 E7.762
G1 X91.152 Y124.281 E7.77728
G1 X84.673 Y123.277 E7.99567
G1 X79.258 Y122.762 E8.17686
G1 X73.737 Y122.552 E8.3609
G1 X31.93 Y122.589 E9.75351
G1 X31.422 Y122.55 E9.77048
G1 X30.926 Y122.431 E9.78747
G1 X30.671 Y122.336 E9.79654
G1 X30.022 Y122.064 E9.81998
G1 X29.569 Y121.831 E9.83694
G1 X29.158 Y121.53 E9.85391
G1 X28.799 Y121.168 E9.8709
G1 X28.501 Y120.755 E9.88786
G1 X28.343 Y120.462 E9.89895
G1 X28.007 Y119.755 E9.92502
G1 X27.825 Y119.279 E9.942
G1 X27.719 Y118.781 E9.95896
G1 X27.693 Y118.448 E9.97009
G1 X27.523 Y112.217 E10.17772
G1 X27.061 Y106.774 E10.35968
G1 X26.285 Y101.335 E10.54269
G1 X25.86 Y99.002 E10.62168
G1 X25.807 Y98.419 E10.64118
G1 X25.807 Y95.605 E10.73492
G1 X25.857 Y95.039 E10.75384
G1 X26.463 Y91.61 E10.86984
G1 X27.179 Y86.138 E11.05366
G1 X27.58 Y80.685 E11.2358
G1 X27.679 Y76.302 E11.38183
G1 X27.639 Y60.292 E11.91513
G1 X27.326 Y54.761 E12.09967
G1 X27.008 Y51.167 E12.21985
G1 X26.999 Y51.041 E12.22406
G1 X26.686 Y44.683 E12.4361
G1 X26.701 Y44.174 E12.45307
G1 X26.765 Y43.792 E12.46597
G1 X26.994 Y42.8 E12.49988
G1 X27.147 Y42.314 E12.51685
G1 X27.271 Y42.044 E12.52675
G1 X27.771 Y41.072 E12.56316
G1 X28.039 Y40.639 E12.58012
G1 X28.505 Y40.127 E12.60318
G1 X28.832 Y39.837 E12.61774
G1 X29.238 Y39.53 E12.6347
G1 F600 E10.8847
G0 F2625 X31.268 Y42.362
;TYPE:SUPPORT
G1 F600 E12.6347
G1 F900 X31.779 Y42.201 E12.65254
G1 X70.245 Y42.203 E13.93386
G1 X70.706 Y42.347 E13.94995
G1 X70.831 Y42.417 E13.95472
G1 X71.044 Y42.582 E13.9637
G1 X71.14 Y42.678 E13.96822
G1 X71.436 Y43.16 E13.98706
G1 X71.597 Y43.546 E14.00099
G1 X71.702 Y44.078 E14.01905
G1 X71.82 Y44.521 E14.03432
G1 X71.64 Y44.99 E14.05106
G1 X71.747 Y45.484 E14.06789
G1 X71.567 Y45.958 E14.08478
G1 X71.67 Y46.435 E14.10104
G1 X71.492 Y46.904 E14.11775
G1 X71.593 Y47.382 E14.13402
G1 X71.433 Y47.836 E14.15006
G1 X71.524 Y48.338 E14.16705
G1 X71.368 Y48.823 E14.18402
G1 X71.462 Y49.329 E14.20117
G1 X71.293 Y49.815 E14.21831
G1 X71.4 Y50.341 E14.23619
G1 X71.246 Y50.8 E14.25231
G1 X71.374 Y51.306 E14.2697
G1 X71.318 Y51.59 E14.27934
G1 X71.058 Y51.708 E14.28885
G1 X70.647 Y52.152 E14.30901
G1 X69.727 Y51.79 E14.34194
G1 X69.933 Y51.092 E14.36618
G1 X69.793 Y50.479 E14.38713
G1 X68.818 Y49.401 E14.43554
G1 X68.219 Y49.005 E14.45946
G1 X67.544 Y48.832 E14.48267
G1 X66.801 Y48.832 E14.50742
G1 X65.865 Y49.189 E14.54079
G1 X64.709 Y50.518 E14.59947
G1 X64.576 Y51.132 E14.62039
G1 X64.756 Y51.738 E14.64145
G1 X60.898 Y51.74 E14.76996
G1 X59.634 Y52.333 E14.81647
G1 X42.872 Y52.336 E15.37482
G1 X42.724 Y52.202 E15.38147
G1 X41.598 Y51.733 E15.4221
G1 X36.73 Y51.733 E15.58425
G1 X36.91 Y51.077 E15.60691
G1 X36.767 Y50.467 E15.62778
G1 X35.609 Y49.165 E15.68582
G1 X34.814 Y48.893 E15.71381
G1 X34.408 Y48.832 E15.72749
G1 X33.385 Y48.832 E15.76157
G1 X32.602 Y49.5 E15.79585
G1 X31.768 Y50.423 E15.83729
G1 X31.608 Y51.019 E15.85784
G1 X31.891 Y52.338 E15.90278
G1 X31.636 Y52.338 E15.91127
G1 X30.561 Y51.555 E15.95557
G1 X30.737 Y50.919 E15.97756
G1 X30.571 Y50.438 E15.99451
G1 X30.604 Y50.29 E15.99956
G1 X30.481 Y49.816 E16.01587
G1 X30.792 Y47.93 E16.07954
G1 X30.498 Y47.339 E16.10153
G1 X30.45 Y47.313 E16.10335
G1 X30.472 Y47.176 E16.10797
G1 X30.292 Y46.718 E16.12436
G1 X30.356 Y46.307 E16.13822
G1 X30.193 Y45.844 E16.15457
G1 X30.343 Y44.972 E16.18404
G1 X30.183 Y44.509 E16.20036
G1 X30.28 Y44.151 E16.21271
G1 X30.39 Y43.605 E16.23127
G1 X30.586 Y43.129 E16.24841
G1 X30.743 Y42.863 E16.2587
G1 X30.882 Y42.657 E16.26698
G1 X30.919 Y42.619 E16.26875
G1 X31.268 Y42.362 E16.28318
G0 F2625 X31.673 Y42.443
G1 F900 X31.673 Y50.231 E16.5426
G0 F2625 X31.871 Y50.01
G1 F900 X30.737 Y50.01 E16.58038
G1 F600 E14.83038
G0 F2625 X31.067 Y51.677
G1 F600 E16.58038
G1 F900 X31.544 Y51.677 E16.59627
G1 F600 E14.84627
G0 F2625 X30.927 Y48.343
G1 F600 E16.59627
G1 F900 X71.311 Y48.343 E17.94147
G1 F600 E16.19147
G0 F2625 X71.364 Y46.676
G1 F600 E17.94147
G1 F900 X30.5 Y46.676 E19.30267
G1 F600 E17.55267
G0 F2625 X30.539 Y45.009
G1 F600 E19.30267
G1 F900 X71.44 Y45.009 E20.66509
G1 F600 E18.91509
G0 F2625 X71.296 Y43.342
G1 F600 E20.66509
G1 F900 X30.714 Y43.342 E22.0169
G1 F600 E20.2669
G0 F2625 X33.34 Y42.402
G1 F600 E22.0169
G1 F900 X33.34 Y48.632 E22.22442
G1 F600 E20.47442
G0 F2625 X35.007 Y48.747
G1 F600 E22.22442
G1 F900 X35.007 Y42.402 E22.43577
G1 F600 E20.68577
G0 F2625 X36.674 Y42.402
G1 F600 E22.43577
G1 F900 X36.674 Y50.06 E22.69086
G0 F2625 X36.628 Y50.01
G1 F900 X64.884 Y50.01 E23.63208
G0 F2625 X65.013 Y49.864
G1 F900 X65.013 Y42.403 E23.88061
G1 F600 E22.13061
G0 F2625 X63.346 Y42.403
G1 F600 E23.88061
G1 F900 X63.346 Y51.539 E24.18493
G1 F600 E22.43493
G0 F2625 X61.679 Y51.54
G1 F600 E24.18493
G1 F900 X61.679 Y42.403 E24.48929
G1 F600 E22.73929
G0 F2625 X60.012 Y42.403
G1 F600 E24.48929
G1 F900 X60.012 Y51.935 E24.8068
G0 F2625 X60.558 Y51.677
G1 F900 X41.984 Y51.677 E25.42551
G0 F2625 X41.675 Y51.547
G1 F900 X41.675 Y42.402 E25.73013
G1 F600 E23.98013
G0 F2625 X40.008 Y42.402
G1 F600 E25.73013
G1 F900 X40.008 Y51.533 E26.03429
G1 F600 E24.28429
G0 F2625 X38.341 Y51.533
G1 F600 E26.03429
G1 F900 X38.341 Y42.402 E26.33845
G1 F600 E24.58845
G0 F2625 X43.342 Y42.402
G1 F600 E26.33845
G1 F900 X43.342 Y52.136 E26.66269
G1 F600 E24.91269
G0 F2625 X45.009 Y52.136
G1 F600 E26.66269
G1 F900 X45.009 Y42.402 E26.98693
G1 F600 E25.23693
G0 F2625 X46.676 Y42.402
G1 F600 E26.98693
G1 F900 X46.676 Y52.136 E27.31118
G1 F600 E25.56118
G0 F2625 X48.343 Y52.136
G1 F600 E27.31118
G1 F900 X48.343 Y42.402 E27.63542
G1 F600 E25.88542
G0 F2625 X50.01 Y42.402
G1 F600 E27.63542
G1 F900 X50.01 Y52.135 E27.95963
G1 F600 E26.20963
G0 F2625 X51.677 Y52.135
G1 F600 E27.95963
G1 F900 X51.677 Y42.403 E28.28381
G1 F600 E26.53381
G0 F2625 X53.344 Y42.403
G1 F600 E28.28381
G1 F900 X53.344 Y52.135 E28.60798
G1 F600 E26.85798
G0 F2625 X55.011 Y52.134
G1 F600 E28.60798
G1 F900 X55.011 Y42.403 E28.93213
G1 F600 E27.18213
G0 F2625 X56.678 Y42.403
G1 F600 E28.93213
G1 F900 X56.678 Y52.134 E29.25627
G1 F600 E27.50627
G0 F2625 X58.345 Y52.134
G1 F600 E29.25627
G1 F900 X58.345 Y42.403 E29.58041
G1 F600 E27.83041
G0 F2625 X66.68 Y42.403
G1 F600 E29.58041
G1 F900 X66.68 Y48.665 E29.789
G1 F600 E28.039
G0 F2625 X68.347 Y48.849
G1 F600 E29.789
G1 F900 X68.347 Y42.403 E30.00372
G1 F600 E28.25372
G0 F2625 X70.014 Y42.403
G1 F600 E30.00372
G1 F900 X70.014 Y50.55 E30.2751
G0 F2625 X69.638 Y50.01
G1 F900 X71.13 Y50.01 E30.3248
G1 F600 E28.5748
G0 F2625 X70.812 Y51.677
G1 F600 E30.3248
G1 F900 X69.988 Y51.677 E30.35225
G0 F2625 X70.014 Y51.687
G1 F900 X70.014 Y51.524 E30.35768
G1 F600 E28.60768
G0 F2625 X89.428 Y43.669
G1 F600 E30.35768
G1 F900 X89.493 Y43.093 E30.37699
G1 X89.68 Y42.551 E30.39608
G1 X89.945 Y42.124 E30.41282
G1 X89.992 Y42.066 E30.41531
G1 X90.35 Y41.716 E30.43199
G1 X90.403 Y41.672 E30.43428
G1 X90.843 Y41.391 E30.45167
G1 X91.324 Y41.221 E30.46867
G1 X91.948 Y41.15 E30.48959
G1 X95.816 Y41.15 E30.61843
G1 X95.848 Y41.157 E30.61952
G1 X96.383 Y41.414 E30.63929
G1 X97.082 Y41.603 E30.66341
G1 X98.065 Y41.686 E30.69627
G1 X99.163 Y41.6 E30.73296
G1 X100.196 Y41.646 E30.7674
G1 X101.036 Y41.647 E30.79538
G1 X101.862 Y41.621 E30.82291
G1 X102.301 Y41.635 E30.83754
G1 X104.115 Y41.481 E30.89819
G1 X104.759 Y41.3 E30.92047
G1 X105.348 Y41.02 E30.94219
G1 X107.761 Y41.02 E31.02257
G1 X108.209 Y41.432 E31.04284
G1 X109.92 Y41.713 E31.1006
G1 X112.089 Y41.714 E31.17285
G1 X113.793 Y41.436 E31.23036
G1 X114.244 Y41.02 E31.2508
G1 X116.647 Y41.02 E31.33085
G1 X117.236 Y41.298 E31.35254
G1 X117.91 Y41.48 E31.3758
G1 X119.744 Y41.635 E31.43711
G1 X120.18 Y41.646 E31.45163
G1 X121.822 Y41.647 E31.50633
G1 X122.528 Y41.624 E31.52986
G1 X123.194 Y41.615 E31.55205
G1 X123.361 Y41.742 E31.55903
G1 X124.925 Y41.599 E31.61135
G1 X125.608 Y41.422 E31.63485
G1 X126.123 Y41.172 E31.65392
G1 X126.189 Y41.15 E31.65624
G1 X130.156 Y41.155 E31.78838
G1 X130.575 Y41.201 E31.80242
G1 X130.682 Y41.228 E31.8061
G1 X131.187 Y41.409 E31.82397
G1 X131.589 Y41.665 E31.83984
G1 X131.643 Y41.708 E31.84214
G1 X132.012 Y42.071 E31.85938
G1 X132.052 Y42.124 E31.8616
G1 X132.315 Y42.547 E31.87819
G1 X132.504 Y43.071 E31.89674
G1 X132.572 Y43.692 E31.91755
G1 X132.568 Y85.617 E33.31409
G1 X132.535 Y85.729 E33.31798
G1 X132.453 Y85.858 E33.32307
G1 X132.4 Y85.908 E33.3255
G1 X132.295 Y85.969 E33.32954
G1 X132.235 Y85.99 E33.33166
G1 X132.109 Y86.008 E33.3359
G1 X126.975 Y86.008 E33.50691
G1 X126.476 Y86.507 E33.53042
G1 X126.476 Y92.453 E33.72848
G1 X126.761 Y93.004 E33.74915
G1 X128.465 Y94.208 E33.81865
G1 X128.722 Y94.435 E33.83007
G1 X128.886 Y94.684 E33.84
G1 X128.98 Y94.951 E33.84943
G1 X129.016 Y95.233 E33.8589
G1 X129.016 Y101.502 E34.06772
G1 X129.332 Y102.049 E34.08877
G1 X132.322 Y103.775 E34.20377
G1 X132.421 Y103.848 E34.20786
G1 X132.499 Y103.93 E34.21163
G1 X132.513 Y103.953 E34.21253
G1 X132.568 Y104.123 E34.21848
G1 X132.572 Y118.63 E34.70172
G1 X132.511 Y118.898 E34.71087
G1 X132.32 Y119.441 E34.73005
G1 X132.024 Y119.919 E34.74877
G1 X131.672 Y120.268 E34.76529
G1 X131.605 Y120.326 E34.76824
G1 X131.16 Y120.604 E34.78572
G1 X130.65 Y120.78 E34.80369
G1 X130.584 Y120.796 E34.80595
G1 X130.137 Y120.845 E34.82093
G1 X130.083 Y120.85 E34.82273
G1 X127.548 Y120.85 E34.90718
G1 X127.519 Y120.778 E34.90976
G1 X127.517 Y119.301 E34.95896
G1 X126.342 Y118.134 E35.01412
G1 X119.222 Y118.134 E35.25129
G1 X118.46 Y117.372 E35.28719
G1 X114.7 Y117.372 E35.41244
G1 X113.529 Y118.543 E35.4676
G1 X113.529 Y120.436 E35.53066
G1 X108.494 Y120.436 E35.69838
G1 X108.491 Y118.538 E35.7616
G1 X107.316 Y117.372 E35.81674
G1 X103.54 Y117.372 E35.94252
G1 X102.778 Y118.134 E35.97842
G1 X95.671 Y118.134 E36.21515
G1 X94.502 Y119.311 E36.27041
G1 X94.504 Y120.775 E36.31918
G1 X94.474 Y120.85 E36.32187
G1 X91.822 Y120.845 E36.41021
G1 X91.429 Y120.798 E36.42339
G1 X91.331 Y120.778 E36.42672
G1 X90.847 Y120.608 E36.44381
G1 X90.38 Y120.319 E36.4621
G1 X89.98 Y119.923 E36.48085
G1 X89.682 Y119.453 E36.49939
G1 X89.5 Y118.944 E36.5174
G1 X89.428 Y118.358 E36.53706
G1 X89.428 Y43.669 E39.02498
G1 F600 E37.27498
G0 F2625 X91.883 Y67.264
G1 F600 E39.02498
G1 F900 X91.883 Y83.425 E39.56331
G1 X92.382 Y83.924 E39.58682
G1 X97.918 Y83.924 E39.77122
G1 X98.417 Y83.425 E39.79473
G1 X98.417 Y67.264 E40.33306
G1 X97.918 Y66.765 E40.35657
G1 X92.382 Y66.765 E40.54097
G1 X91.883 Y67.264 E40.56448
G1 F600 E38.81448
G0 F2625 X123.743 Y67.275
G1 F600 E40.56448
G1 F900 X123.743 Y83.425 E41.10244
G1 X124.242 Y83.924 E41.12595
G1 X129.633 Y83.924 E41.30552
G1 X130.132 Y83.425 E41.32903
G1 X130.132 Y67.275 E41.86699
G1 X129.633 Y66.776 E41.8905
G1 X124.242 Y66.776 E42.07008
G1 X123.743 Y67.275 E42.09358
G0 F2625 X124.053 Y66.68
G1 F900 X98.117 Y66.68 E42.95752
G0 F2625 X98.353 Y66.916
G1 F900 X98.353 Y41.864 E43.79201
G1 F600 E42.04201
G0 F2625 X100.02 Y41.839
G1 F600 E43.79201
G1 F900 X100.02 Y117.934 E46.32676
G1 F600 E44.57676
G0 F2625 X101.687 Y117.934
G1 F600 E46.32676
G1 F900 X101.687 Y41.826 E48.86195
G1 F600 E47.11195
G0 F2625 X103.354 Y41.745
G1 F600 E48.86195
G1 F900 X103.354 Y117.275 E51.37788
G1 F600 E49.62788
G0 F2625 X105.021 Y117.172
G1 F600 E51.37788
G1 F900 X105.021 Y41.396 E53.90201
G0 F2625 X104.16 Y41.675
G1 F900 X108.455 Y41.675 E54.04507
G0 F2625 X108.355 Y41.66
G1 F900 X108.355 Y118.12 E56.59198
G0 F2625 X108.593 Y118.357
G1 F900 X113.431 Y118.357 E56.75314
